X: 142
T: Le'or Chiyuchech
C: Amitai Ne'eman, 1959
S: from record Pecurcka goes underground (P.U.1 Oct 1975) 
O: Israel
F: http://www.youtube.com/watch?v=INTJD1wV15I
F: http://www.youtube.com/watch?v=bItpl8h3UcE
L: 1/8
M: 4/4
Q: 1/4=120
K: Am
 E2              |: "Am"c2 Bc A4      | "G"BcdB "Am"cBAG  | c2 Bc A4|\
 "G"GFGB "Am"A4  :: "Dm"d2 ef"Am"edcA | "Dm"d e2 f "C"gedc|\
 "Am"A2 AG A2 AG |[1 "Am"A2 c2 "Dm"d4 :|[2"Am"A2 c2 "G"B4 |



